svg/1password.svg

<svg xmlns="http://www.w3.org/2000/svg" fill="none" viewBox="70.31 70.31 579.38 579.38"><path fill="#000" d="M360 70.313C199.997 70.313 70.313 199.997 70.313 360S199.997 649.688 360 649.688 649.688 520.003 649.688 360 520.003 70.313 360 70.313m0 19.312c149.337 0 270.375 121.038 270.375 270.375S509.337 630.375 360 630.375 89.625 509.337 89.625 360 210.663 89.625 360 89.625" opacity=".502"/><path fill="#fff" d="M360 89.625c149.337 0 270.375 121.038 270.375 270.375S509.337 630.375 360 630.375 89.625 509.337 89.625 360 210.663 89.625 360 89.625"/><path fill="#0A2D4D" d="M321.375 253.81c0-5.349 4.153-9.685 9.472-9.685h58.306c5.231 0 9.472 4.241 9.472 9.58v108.302c0 5.291-3.189 12.451-7.191 16.053l-4.93 4.437c-3.972 3.574-4.174 9.489-.437 13.226l5.803 5.804c3.731 3.73 6.755 11.189 6.755 16.439v48.224c0 5.349-4.153 9.685-9.472 9.685h-58.306c-5.231 0-9.472-4.177-9.472-9.642V359.986c0-5.325 3.018-12.66 6.755-16.397l5.803-5.803a9.547 9.547 0 0 0 0-13.509l-5.803-5.804c-3.731-3.73-6.755-11.189-6.755-16.439z"/><path fill="#198CFF" d="M360 147.562c117.336 0 212.438 95.102 212.438 212.438S477.336 572.438 360 572.438 147.562 477.336 147.562 360 242.664 147.562 360 147.562m0 57.938c-85.336 0-154.5 69.164-154.5 154.5S274.664 514.5 360 514.5 514.5 445.336 514.5 360 445.336 205.5 360 205.5"/></svg>

<svg xmlns="http://www.w3.org/2000/svg" fill="none" viewBox="70.31 70.31 579.38 579.38">
<path opacity="0.502255" d="M360 70.3125C199.997 70.3125 70.3125 199.997 70.3125 360C70.3125 520.003 199.997 649.688 360 649.688C520.003 649.688 649.688 520.003 649.688 360C649.688 199.997 520.003 70.3125 360 70.3125ZM360 89.625C509.337 89.625 630.375 210.663 630.375 360C630.375 509.337 509.337 630.375 360 630.375C210.663 630.375 89.625 509.337 89.625 360C89.625 210.663 210.663 89.625 360 89.625Z" fill="black"/>
<path d="M360 89.625C509.337 89.625 630.375 210.663 630.375 360C630.375 509.337 509.337 630.375 360 630.375C210.663 630.375 89.625 509.337 89.625 360C89.625 210.663 210.663 89.625 360 89.625Z" fill="white"/>
<path d="M321.375 253.81C321.375 248.461 325.528 244.125 330.847 244.125H389.153C394.384 244.125 398.625 248.366 398.625 253.705V362.007C398.625 367.298 395.436 374.458 391.434 378.06L386.504 382.497C382.532 386.071 382.33 391.986 386.067 395.723L391.87 401.527C395.601 405.257 398.625 412.716 398.625 417.966V466.19C398.625 471.539 394.472 475.875 389.153 475.875H330.847C325.616 475.875 321.375 471.698 321.375 466.233V359.986C321.375 354.661 324.393 347.326 328.13 343.589L333.933 337.786C337.663 334.055 337.67 328.014 333.933 324.277L328.13 318.473C324.399 314.743 321.375 307.284 321.375 302.034V253.81Z" fill="#0A2D4D"/>
<path d="M360 147.562C477.336 147.562 572.438 242.664 572.438 360C572.438 477.336 477.336 572.438 360 572.438C242.664 572.438 147.562 477.336 147.562 360C147.562 242.664 242.664 147.562 360 147.562ZM360 205.5C274.664 205.5 205.5 274.664 205.5 360C205.5 445.336 274.664 514.5 360 514.5C445.336 514.5 514.5 445.336 514.5 360C514.5 274.664 445.336 205.5 360 205.5Z" fill="#198CFF"/>
</svg>
